X: 14
T:Hughie Shortie's Reel
M:4/4
L:1/8
C:J. Wilmot
R:Reel
K:G
"G"G2 BG "D"cAFA|"G"GABd g2fg|"C"ecAc "G"dBGB|"Am"cAAB "D"AF D2|
"G"DGBG "D"cAFA|!"G"GABd g2fg|"C"ecAc "G"dBGB|"D"cAFA "G"G4:||
"G"g2dg bgag|"C"ec c/c/c "Am"efge|!"G"dB B/B/B "Em"dBGB|"C"cAAB "D"AF D2
|
"G"g2dg bgag|"C"ec c/c/c "Am"efge|!"G"dB B/B/B "Em"dBGB|"D"cAFA "G"G2 z2
|
"G"g2dg bgag|"C"ec c/c/c "Am"efge|"G"dB B/B/B "Em"dBGB|!"C"cAAB "D"AF D2
|
"G"G,CEC B,DdB|"D"cdef "G"g2 fg|"C"ecAc "G"dBGB|"D"cAFA "G"G4||
